X: 1
T: Duncan Davidson
R: strathspey
B: Kerr's
B: BSFC XXXI-14
B: BSFC Session Tune Book 2016 p.45
S: B.McO. 6/73,10/03
M: C
L: 1/8
K: D
"A1"[| F \
| "D"D>F A>B A<F A<d | "D"D>F d>B "A7"A>F E>F \
| "D"D>F A>B "Bm"A<F A>g | "Em"f>d "A7"e>f "D"d<d d ||
"A2"[| F \
| "D"D>F A>B A<F A<d | "D"D>F d>B "G"B/A/G/F/ "A7"E>F \
| "D"D>F A>B "Bm"A<F A>g | "Em"f>d "A7"e>f "D"d<d d |]
"B1"[| g \
| "D7"f>e (3def "G"g>f e>d | "A7"c<A e<A f<A e>g \
| "D7"f>e (3def "G"g>f e>d | "A7"c>d e>g "D"f<d d ||
"B2"[| g  \
| "D7"f>e (3def "G"g>f e>d | "A7"c<A e<A c>d e>g \
| "D"f<d "A"g<e "Bm"a<f b>g | "Em"f>d "A7"e>f "D"d<d d :|


